src/img/seller-4.svg

<svg width="217" height="38" viewBox="0 0 217 38" fill="none" xmlns="http://www.w3.org/2000/svg">
<g clip-path="url(#clip0_1412_727)">
<path d="M28.085 15.81C27.944 15.66 27.8313 15.42 27.8313 15.19C27.8313 14.96 27.9159 14.74 28.085 14.57L34.0608 8.24C34.3709 7.91 34.8971 7.91 35.2071 8.24L47.2622 21.07C48.1548 22.05 48.1266 23.6 47.234 24.55L34.8971 37.74C34.7561 37.92 34.5306 38.01 34.3145 38.01H22.3347C21.9964 38.01 21.6957 37.8 21.583 37.45C21.4702 37.12 21.5548 36.74 21.8085 36.5L34.089 23.43C34.23 23.28 34.3427 23.04 34.3427 22.81C34.3427 22.58 34.2581 22.36 34.089 22.19L28.085 15.83V15.81ZM19.8541 22.2C19.9951 22.35 20.1078 22.59 20.1078 22.82C20.1078 23.05 20.0232 23.27 19.8541 23.44L13.8783 29.8C13.5682 30.13 13.042 30.13 12.732 29.8L0.648747 16.94C-0.215682 15.96 -0.215682 14.41 0.676935 13.46L13.0702 0.27C13.2394 0.09 13.4367 0 13.6528 0H25.6045C25.9427 0 26.2434 0.21 26.3561 0.56C26.4689 0.89 26.3843 1.27 26.1306 1.51L13.8501 14.59C13.7091 14.74 13.5964 14.98 13.5964 15.21C13.5964 15.44 13.681 15.66 13.8501 15.83L19.8541 22.19V22.2ZM62.2018 22.47C63.4326 23.66 65.3588 24.4 67.2004 24.4C68.5159 24.4 69.5212 23.72 69.5212 22.77C69.5212 19.86 60.6984 20.9 60.6984 14.66C60.6984 10.95 64.0716 8.63 67.6796 8.63C70.0568 8.63 72.6501 9.58 73.8528 10.59L71.5602 14.33C70.6112 13.62 69.3803 13.02 68.0742 13.02C66.7682 13.02 65.5937 13.58 65.5937 14.59C65.5937 17.12 74.4165 16.11 74.4165 22.82C74.4165 26.53 71.0152 28.82 67.1628 28.82C64.6541 28.82 61.9669 27.9 59.8246 26.24L62.23 22.47H62.2018ZM82.1306 21.61C83.136 23.13 84.7803 24.02 86.5373 24.02C89.2716 24.02 91.3387 21.79 91.3387 18.73C91.3387 15.94 89.4971 13.41 86.6501 13.41C84.8649 13.41 83.2206 14.3 82.1306 15.82V21.61ZM77.2447 9.01H81.9333V10.55C83.3615 9.3 85.2031 8.59 87.2608 8.59C92.2313 8.59 96.1964 12.99 96.1964 18.72C96.1964 21.36 95.332 23.77 93.9038 25.52C92.2877 27.51 89.685 28.79 86.9789 28.79C85.1373 28.79 83.5776 28.23 82.093 27.04V38H77.2071V9H77.2353L77.2447 9.01ZM110.77 16.2C110.629 14.48 109.153 12.81 107.171 12.81C105.188 12.81 103.488 14.44 103.262 16.2H110.77ZM115.317 25.32C113.56 27.55 110.657 28.8 107.838 28.8C102.398 28.8 98.2917 24.79 98.2917 18.73C98.2917 13.32 101.749 8.63 107.171 8.63C112.198 8.63 115.768 13.15 115.768 18.55C115.768 19.06 115.74 19.59 115.655 20.04H103.008C103.262 22.77 105.329 24.65 107.923 24.65C109.99 24.65 111.634 23.4 112.498 22.42L115.317 25.33V25.32ZM118.587 28.41V9H123.276V10.54C124.732 9.26 126.545 8.58 128.415 8.58C130.924 8.58 133.217 9.77 134.72 11.7C135.923 13.22 136.59 15.18 136.59 18.5V28.36H131.704V18.11C131.704 16.18 131.281 15.2 130.614 14.46C129.975 13.78 128.998 13.39 127.88 13.39C125.813 13.39 124.112 14.79 123.445 15.8V28.4H118.587V28.41ZM153.343 15.81C152.281 14.29 150.608 13.4 148.823 13.4C145.976 13.4 144.135 15.93 144.135 18.72C144.135 21.75 146.202 24.01 148.936 24.01C150.693 24.01 152.319 23.12 153.352 21.6V15.81H153.343ZM153.54 28.41V26.87C152.037 28.24 150.298 28.83 148.457 28.83C145.751 28.83 143.204 27.55 141.588 25.56C140.085 23.66 139.249 21.25 139.249 18.76C139.249 13.06 143.242 8.66 148.184 8.66C150.167 8.66 151.896 9.25 153.324 10.47V0H158.21V28.4H153.549L153.54 28.41ZM173.638 16.2C173.497 14.48 172.022 12.81 170.039 12.81C168.057 12.81 166.356 14.44 166.131 16.2H173.638ZM178.157 25.32C176.4 27.55 173.497 28.8 170.678 28.8C165.238 28.8 161.132 24.79 161.132 18.73C161.132 13.32 164.59 8.63 170.011 8.63C175.038 8.63 178.608 13.15 178.608 18.55C178.608 19.06 178.58 19.59 178.496 20.04H165.877C166.131 22.77 168.198 24.65 170.791 24.65C172.858 24.65 174.502 23.4 175.367 22.42L178.157 25.33V25.32ZM183.213 22.47C184.443 23.66 186.37 24.4 188.211 24.4C189.527 24.4 190.532 23.72 190.532 22.77C190.532 19.86 181.709 20.9 181.709 14.66C181.709 10.95 185.082 8.63 188.69 8.63C191.068 8.63 193.661 9.58 194.864 10.59L192.571 14.33C191.622 13.62 190.391 13.02 189.085 13.02C187.779 13.02 186.604 13.58 186.604 14.59C186.604 17.12 195.427 16.11 195.427 22.82C195.427 26.53 192.026 28.82 188.164 28.82C185.655 28.82 182.968 27.9 180.854 26.24L183.222 22.47H183.213ZM206.966 17.72L216.991 28.39H210.404L202.7 19.98V28.39H197.814V0H202.7V15.27L208.976 9H215.845L206.966 17.71V17.72Z" fill="white"/>
</g>
<defs>
<clipPath id="clip0_1412_727">
<rect width="217" height="38" fill="white"/>
</clipPath>
</defs>
</svg>

<svg xmlns="http://www.w3.org/2000/svg" width="217" height="38" fill="none" xmlns:v="https://vecta.io/nano"><g clip-path="url(#A)"><path d="M28.085 15.81a.96.96 0 0 1-.254-.62.87.87 0 0 1 .254-.62l5.976-6.33a.79.79 0 0 1 1.146 0l12.055 12.83a2.6 2.6 0 0 1-.028 3.48L34.897 37.74c-.141.18-.367.27-.583.27h-11.98c-.338 0-.639-.21-.752-.56-.113-.33-.028-.71.226-.95l12.281-13.07a.96.96 0 0 0 .254-.62.87.87 0 0 0-.254-.62l-6.004-6.36v-.02zm-8.231 6.39a.96.96 0 0 1 .254.62.87.87 0 0 1-.254.62l-5.976 6.36a.79.79 0 0 1-1.146 0L.649 16.94c-.864-.98-.864-2.53.028-3.48L13.07.27c.169-.18.367-.27.583-.27h11.952c.338 0 .639.21.752.56.113.33.028.71-.226.95L13.85 14.59a.96.96 0 0 0-.254.62.87.87 0 0 0 .254.62l6.004 6.36v.01zm42.348.27c1.231 1.19 3.157 1.93 4.999 1.93 1.316 0 2.321-.68 2.321-1.63 0-2.91-8.823-1.87-8.823-8.11 0-3.71 3.373-6.03 6.981-6.03 2.377 0 4.971.95 6.173 1.96l-2.293 3.74c-.949-.71-2.18-1.31-3.486-1.31s-2.481.56-2.481 1.57c0 2.53 8.823 1.52 8.823 8.23 0 3.71-3.401 6-7.254 6-2.509 0-5.196-.92-7.338-2.58l2.405-3.77h-.028zm19.929-.86c1.005 1.52 2.65 2.41 4.407 2.41 2.734 0 4.801-2.23 4.801-5.29 0-2.79-1.842-5.32-4.689-5.32-1.785 0-3.429.89-4.519 2.41v5.79zm-4.886-12.6h4.689v1.54c1.428-1.25 3.27-1.96 5.328-1.96 4.971 0 8.936 4.4 8.936 10.13 0 2.64-.864 5.05-2.293 6.8-1.616 1.99-4.219 3.27-6.925 3.27-1.842 0-3.401-.56-4.886-1.75V38h-4.886V9h.028l.009.01zm33.525 7.19c-.141-1.72-1.617-3.39-3.599-3.39s-3.683 1.63-3.909 3.39h7.508zm4.547 9.12c-1.757 2.23-4.66 3.48-7.479 3.48-5.44 0-9.546-4.01-9.546-10.07 0-5.41 3.457-10.1 8.879-10.1 5.027 0 8.597 4.52 8.597 9.92 0 .51-.028 1.04-.113 1.49h-12.647c.254 2.73 2.321 4.61 4.915 4.61 2.067 0 3.711-1.25 4.575-2.23l2.819 2.91v-.01zm3.27 3.09V9h4.689v1.54c1.456-1.28 3.269-1.96 5.139-1.96 2.509 0 4.802 1.19 6.305 3.12 1.203 1.52 1.87 3.48 1.87 6.8v9.86h-4.886V18.11c0-1.93-.423-2.91-1.09-3.65-.639-.68-1.616-1.07-2.734-1.07-2.067 0-3.768 1.4-4.435 2.41v12.6h-4.858v.01zm34.756-12.6c-1.062-1.52-2.735-2.41-4.52-2.41-2.847 0-4.688 2.53-4.688 5.32 0 3.03 2.067 5.29 4.801 5.29 1.757 0 3.383-.89 4.416-2.41v-5.79h-.009zm.197 12.6v-1.54c-1.503 1.37-3.242 1.96-5.083 1.96a8.94 8.94 0 0 1-6.869-3.27c-1.503-1.9-2.339-4.31-2.339-6.8 0-5.7 3.993-10.1 8.935-10.1 1.983 0 3.712.59 5.14 1.81V0h4.886v28.4h-4.661l-.009.01zm20.098-12.21c-.141-1.72-1.616-3.39-3.599-3.39s-3.683 1.63-3.908 3.39h7.507zm4.519 9.12c-1.757 2.23-4.66 3.48-7.479 3.48-5.44 0-9.546-4.01-9.546-10.07 0-5.41 3.458-10.1 8.879-10.1 5.027 0 8.597 4.52 8.597 9.92 0 .51-.028 1.04-.112 1.49h-12.619c.254 2.73 2.321 4.61 4.914 4.61 2.067 0 3.711-1.25 4.576-2.23l2.79 2.91v-.01zm5.056-2.85c1.23 1.19 3.157 1.93 4.998 1.93 1.316 0 2.321-.68 2.321-1.63 0-2.91-8.823-1.87-8.823-8.11 0-3.71 3.373-6.03 6.981-6.03 2.378 0 4.971.95 6.174 1.96l-2.293 3.74c-.949-.71-2.18-1.31-3.486-1.31s-2.481.56-2.481 1.57c0 2.53 8.823 1.52 8.823 8.23 0 3.71-3.401 6-7.263 6-2.509 0-5.196-.92-7.31-2.58l2.368-3.77h-.009zm23.753-4.75l10.025 10.67h-6.587l-7.704-8.41v8.41h-4.886V0h4.886v15.27L208.976 9h6.869l-8.879 8.71v.01z" fill="#fff"/></g><defs><clipPath id="A"><path fill="#fff" d="M0 0h217v38H0z"/></clipPath></defs></svg>
